dist/img/banner/banner_link.svg

<svg width="180" height="155" viewBox="0 0 180 155" fill="none" xmlns="http://www.w3.org/2000/svg">
<g clip-path="url(#clip0_44_270)">
<g filter="url(#filter0_d_44_270)">
<path d="M114.683 57.403C107.888 49.1984 99.3003 44.6798 90.5 44.6798C81.6997 44.6798 73.1115 49.1984 66.3175 57.403C60.2104 64.7778 56.5645 74.0722 56.5645 82.2654C56.5645 86.2455 57.7811 89.277 60.1803 91.2763C62.5483 93.2498 65.6747 93.9173 69.1626 93.9171C72.874 93.9171 76.995 93.1612 81.0441 92.4183C84.5823 91.7691 87.9243 91.156 90.5002 91.156C92.7234 91.156 95.8581 91.7379 99.1762 92.354C106.931 93.794 115.721 95.4258 120.798 91.2035C123.212 89.1964 124.436 86.189 124.436 82.2654C124.436 74.0722 120.79 64.7778 114.683 57.403Z" fill="#FF8A00"/>
<path d="M115.377 12.851C112.891 9.18526 109.332 7.083 105.611 7.083C101.89 7.083 98.3303 9.18546 95.8444 12.851C93.5608 16.2186 92.303 20.6409 92.303 25.3034C92.303 29.966 93.5606 34.3883 95.8444 37.7558C98.3303 41.4214 101.89 43.5239 105.611 43.5239C109.332 43.5239 112.891 41.4214 115.377 37.7558C117.661 34.3883 118.919 29.966 118.919 25.3034C118.919 20.6409 117.661 16.2184 115.377 12.851Z" fill="#FF8A00"/>
<path d="M85.1559 12.8509C82.6699 9.18508 79.1104 7.08282 75.3893 7.08282C71.6683 7.08282 68.1086 9.18528 65.6228 12.8509C63.3392 16.2184 62.0814 20.6407 62.0814 25.3033C62.0814 29.9658 63.339 34.3881 65.6228 37.7557C68.1088 41.4214 71.6683 43.5239 75.3893 43.5239C79.1104 43.5239 82.6699 41.4214 85.1559 37.7557C87.4395 34.3881 88.6973 29.966 88.6973 25.3033C88.6971 20.6407 87.4395 16.2182 85.1559 12.8509Z" fill="#FF8A00"/>
<path d="M140.405 41.452C139.402 38.0424 137.254 35.565 134.356 34.4762C132.024 33.6002 129.392 33.7487 126.944 34.8946C123.57 36.4736 120.812 39.734 119.378 43.8397C118.207 47.1948 118.06 50.741 118.967 53.8256C119.969 57.2352 122.117 59.7126 125.016 60.8014C126.019 61.1781 127.077 61.3653 128.152 61.3653C129.577 61.3653 131.033 61.0361 132.429 60.383C135.802 58.804 138.56 55.5436 139.994 51.4381V51.4379C141.165 48.083 141.311 44.5366 140.405 41.452Z" fill="#FF8A00"/>
<path d="M61.6221 43.8393C60.188 39.7336 57.4304 36.4734 54.0569 34.8945C51.6086 33.7486 48.9759 33.6003 46.644 34.4761C43.7458 35.565 41.5977 38.0425 40.5955 41.4518C39.6888 44.5365 39.835 48.0829 41.0067 51.4378V51.438C42.441 55.5437 45.1984 58.8039 48.5719 60.3828C49.9676 61.0359 51.423 61.3652 52.8484 61.3652C53.9237 61.3652 54.9821 61.1778 55.9849 60.8012C58.8834 59.7123 61.0314 57.2348 62.0335 53.8255C62.9398 50.741 62.7937 47.1946 61.6221 43.8393Z" fill="#FF8A00"/>
</g>
</g>
<path d="M11.1019 121.52L7.83991 126H5.65591L9.96791 120.26L6.13191 116.032H8.28791L12.1799 120.512V116.032H13.9299V120.512L17.8219 116.032H19.9779L16.1419 120.26L20.4539 126H18.2699L15.0079 121.52L13.9299 122.724V126H12.1799V122.724L11.1019 121.52ZM31.7655 116.032V126H30.0995V118.314L27.3275 126H25.8995L23.0575 118.314V126H21.4055V116.032H23.8555L26.6415 123.83L29.3295 116.032H31.7655ZM33.8189 126V116.032H35.5689V123.676L39.8529 116.032H41.8829V126H40.1329V118.356L35.8489 126H33.8189ZM55.8829 116.032V126H54.1329V121.52H49.5689V126H47.8189V116.032H49.5689V119.994H54.1329V116.032H55.8829ZM62.5004 116.018L66.3504 126H64.4744L63.5224 123.354H59.5744L58.5944 126H56.7884L60.6384 116.018H62.5004ZM63.0604 122.038L61.5764 117.838L60.0224 122.038H63.0604ZM78.9828 126H77.2328V117.544H74.1528L73.9708 122.29C73.9148 123.615 73.6441 124.595 73.1588 125.23C72.6828 125.865 72.0621 126.182 71.2968 126.182C70.9608 126.182 70.6108 126.121 70.2468 126V124.656C70.4334 124.731 70.6621 124.768 70.9328 124.768C71.2034 124.768 71.4228 124.703 71.5908 124.572C71.7588 124.441 71.9081 124.152 72.0388 123.704C72.1694 123.247 72.2488 122.617 72.2768 121.814L72.4728 116.032H78.9828V126ZM85.5922 116.018L89.4422 126H87.5662L86.6142 123.354H82.6662L81.6862 126H79.8802L83.7302 116.018H85.5922ZM86.1522 122.038L84.6682 117.838L83.1142 122.038H86.1522ZM98.4161 116.032V126H96.6661V117.544H92.1021V126H90.3521V116.032H98.4161ZM108.828 116.032L104.838 120.008L109.08 126H106.91L103.634 121.226L102.206 122.654V126H100.47V116.032H102.206V120.554L106.616 116.032H108.828ZM112.392 123.2L108.948 116.032H110.88L113.288 121.38L115.752 116.032H117.642L113.764 123.97C113.362 124.791 112.933 125.375 112.476 125.72C112.018 126.065 111.5 126.238 110.922 126.238C110.511 126.238 110.119 126.154 109.746 125.986V124.516C110.016 124.684 110.39 124.768 110.866 124.768C111.164 124.768 111.416 124.651 111.622 124.418C111.827 124.185 112.079 123.788 112.378 123.228L112.392 123.2ZM118.669 124.11V125.538C118.669 126.266 118.529 126.849 118.249 127.288C117.969 127.736 117.475 128.039 116.765 128.198V127.358C117.344 127.181 117.647 126.728 117.675 126H116.765V124.11H118.669ZM130.382 121.632C129.309 121.819 128.436 121.912 127.764 121.912C127.186 121.912 126.672 121.842 126.224 121.702C125.786 121.553 125.445 121.375 125.202 121.17C124.969 120.955 124.778 120.703 124.628 120.414C124.479 120.125 124.381 119.863 124.334 119.63C124.288 119.387 124.264 119.135 124.264 118.874V116.032H126.014V118.342C126.014 118.566 126.019 118.743 126.028 118.874C126.038 119.005 126.08 119.177 126.154 119.392C126.229 119.607 126.332 119.775 126.462 119.896C126.593 120.017 126.794 120.125 127.064 120.218C127.335 120.311 127.662 120.358 128.044 120.358C128.81 120.358 129.589 120.279 130.382 120.12V116.032H132.132V126H130.382V121.632ZM141.352 116.032V117.544H138.174V126H136.424V117.544H133.246V116.032H141.352ZM146.549 115.794C147.959 115.794 149.102 116.279 149.979 117.25C150.866 118.211 151.309 119.467 151.309 121.016C151.309 122.565 150.866 123.825 149.979 124.796C149.093 125.757 147.94 126.238 146.521 126.238C145.093 126.238 143.936 125.757 143.049 124.796C142.172 123.835 141.733 122.575 141.733 121.016C141.733 119.504 142.163 118.258 143.021 117.278C143.889 116.289 145.065 115.794 146.549 115.794ZM146.521 117.264C145.607 117.264 144.874 117.605 144.323 118.286C143.773 118.958 143.497 119.859 143.497 120.988C143.497 122.145 143.768 123.065 144.309 123.746C144.86 124.427 145.607 124.768 146.549 124.768C147.455 124.768 148.178 124.427 148.719 123.746C149.27 123.055 149.545 122.141 149.545 121.002C149.545 119.863 149.27 118.958 148.719 118.286C148.178 117.605 147.445 117.264 146.521 117.264ZM161.036 122.906C161.036 123.895 160.737 124.661 160.14 125.202C159.552 125.734 158.717 126 157.634 126H152.902V116.032H160.238V117.544H154.652V119.84H157.634C158.726 119.84 159.566 120.106 160.154 120.638C160.742 121.17 161.036 121.926 161.036 122.906ZM159.286 122.948C159.286 122.425 159.132 122.015 158.824 121.716C158.516 121.417 158.087 121.268 157.536 121.268H154.652V124.572H157.564C158.712 124.572 159.286 124.031 159.286 122.948ZM170.291 122.906C170.291 123.895 169.993 124.661 169.395 125.202C168.807 125.734 167.972 126 166.889 126H162.759V116.032H164.509V119.84H166.889C167.981 119.84 168.821 120.106 169.409 120.638C169.997 121.17 170.291 121.926 170.291 122.906ZM168.541 122.948C168.541 122.425 168.387 122.015 168.079 121.716C167.771 121.417 167.342 121.268 166.791 121.268H164.509V124.572H166.819C167.967 124.572 168.541 124.031 168.541 122.948ZM171.467 116.032H173.217V126H171.467V116.032ZM65.7676 138.032V148H64.0176V139.544H59.4536V148H57.7036V138.032H65.7676ZM72.1332 137.794C73.5425 137.794 74.6858 138.279 75.5632 139.25C76.4498 140.211 76.8932 141.467 76.8932 143.016C76.8932 144.565 76.4498 145.825 75.5632 146.796C74.6765 147.757 73.5238 148.238 72.1052 148.238C70.6772 148.238 69.5198 147.757 68.6332 146.796C67.7558 145.835 67.3172 144.575 67.3172 143.016C67.3172 141.504 67.7465 140.258 68.6052 139.278C69.4732 138.289 70.6492 137.794 72.1332 137.794ZM72.1052 139.264C71.1905 139.264 70.4578 139.605 69.9072 140.286C69.3565 140.958 69.0812 141.859 69.0812 142.988C69.0812 144.145 69.3518 145.065 69.8932 145.746C70.4438 146.427 71.1905 146.768 72.1332 146.768C73.0385 146.768 73.7618 146.427 74.3032 145.746C74.8538 145.055 75.1292 144.141 75.1292 143.002C75.1292 141.863 74.8538 140.958 74.3032 140.286C73.7618 139.605 73.0292 139.264 72.1052 139.264ZM88.8319 138.032V148H87.1659V140.314L84.3939 148H82.9659L80.1239 140.314V148H78.4719V138.032H80.9219L83.7079 145.83L86.3959 138.032H88.8319ZM95.2113 137.794C96.6206 137.794 97.7639 138.279 98.6413 139.25C99.5279 140.211 99.9713 141.467 99.9713 143.016C99.9713 144.565 99.5279 145.825 98.6413 146.796C97.7546 147.757 96.6019 148.238 95.1833 148.238C93.7553 148.238 92.5979 147.757 91.7113 146.796C90.8339 145.835 90.3953 144.575 90.3953 143.016C90.3953 141.504 90.8246 140.258 91.6833 139.278C92.5513 138.289 93.7273 137.794 95.2113 137.794ZM95.1833 139.264C94.2686 139.264 93.5359 139.605 92.9853 140.286C92.4346 140.958 92.1593 141.859 92.1593 142.988C92.1593 144.145 92.4299 145.065 92.9713 145.746C93.5219 146.427 94.2686 146.768 95.2113 146.768C96.1166 146.768 96.8399 146.427 97.3813 145.746C97.9319 145.055 98.2073 144.141 98.2073 143.002C98.2073 141.863 97.9319 140.958 97.3813 140.286C96.8399 139.605 96.1073 139.264 95.1833 139.264ZM107.318 143.632C106.245 143.819 105.372 143.912 104.7 143.912C104.121 143.912 103.608 143.842 103.16 143.702C102.721 143.553 102.381 143.375 102.138 143.17C101.905 142.955 101.713 142.703 101.564 142.414C101.415 142.125 101.317 141.863 101.27 141.63C101.223 141.387 101.2 141.135 101.2 140.874V138.032H102.95V140.342C102.95 140.566 102.955 140.743 102.964 140.874C102.973 141.005 103.015 141.177 103.09 141.392C103.165 141.607 103.267 141.775 103.398 141.896C103.529 142.017 103.729 142.125 104 142.218C104.271 142.311 104.597 142.358 104.98 142.358C105.745 142.358 106.525 142.279 107.318 142.12V138.032H109.068V148H107.318V143.632ZM118.96 144.906C118.96 145.895 118.661 146.661 118.064 147.202C117.476 147.734 116.641 148 115.558 148H111.148V138.032H112.898V141.84H115.558C116.65 141.84 117.49 142.106 118.078 142.638C118.666 143.17 118.96 143.926 118.96 144.906ZM117.21 144.948C117.21 144.425 117.056 144.015 116.748 143.716C116.44 143.417 116.011 143.268 115.46 143.268H112.898V146.572H115.488C116.636 146.572 117.21 146.031 117.21 144.948ZM122.222 138.032V140.888L121.774 145.242H120.948L120.514 140.902V138.032H122.222ZM122.278 146.222V148H120.458V146.222H122.278Z" fill="#FF8A00"/>
<defs>
<filter id="filter0_d_44_270" x="34.0077" y="5.08282" width="112.985" height="98.8343" filterUnits="userSpaceOnUse" color-interpolation-filters="sRGB">
<feFlood flood-opacity="0" result="BackgroundImageFix"/>
<feColorMatrix in="SourceAlpha" type="matrix" values="0 0 0 0 0 0 0 0 0 0 0 0 0 0 0 0 0 0 127 0" result="hardAlpha"/>
<feOffset dy="4"/>
<feGaussianBlur stdDeviation="3"/>
<feComposite in2="hardAlpha" operator="out"/>
<feColorMatrix type="matrix" values="0 0 0 0 0 0 0 0 0 0 0 0 0 0 0 0 0 0 0.25 0"/>
<feBlend mode="normal" in2="BackgroundImageFix" result="effect1_dropShadow_44_270"/>
<feBlend mode="normal" in="SourceGraphic" in2="effect1_dropShadow_44_270" result="shape"/>
</filter>
<clipPath id="clip0_44_270">
<rect width="111" height="101" fill="white" transform="translate(35)"/>
</clipPath>
</defs>
</svg>

<svg width="180" height="155" fill="none" xmlns="http://www.w3.org/2000/svg"><g filter="url(#b)" fill="#FF8A00" clip-path="url(#a)"><path d="M114.683 57.403C107.888 49.198 99.3 44.68 90.5 44.68s-17.388 4.518-24.183 12.723c-6.107 7.375-9.752 16.67-9.752 24.862 0 3.98 1.216 7.012 3.615 9.011 2.368 1.974 5.495 2.641 8.983 2.641 3.711 0 7.832-.756 11.881-1.499 3.538-.649 6.88-1.262 9.456-1.262 2.223 0 5.358.582 8.676 1.198 7.755 1.44 16.545 3.072 21.622-1.15 2.414-2.008 3.638-5.015 3.638-8.939 0-8.193-3.646-17.487-9.753-24.862ZM115.377 12.851c-2.486-3.666-6.045-5.768-9.766-5.768s-7.28 2.102-9.767 5.768c-2.283 3.368-3.541 7.79-3.541 12.452 0 4.663 1.258 9.085 3.541 12.453 2.486 3.665 6.046 5.768 9.767 5.768 3.721 0 7.28-2.103 9.766-5.768 2.284-3.368 3.542-7.79 3.542-12.453 0-4.662-1.258-9.085-3.542-12.452ZM85.156 12.85c-2.486-3.665-6.046-5.767-9.767-5.767-3.72 0-7.28 2.102-9.766 5.768-2.284 3.367-3.542 7.79-3.542 12.452 0 4.663 1.258 9.085 3.542 12.453 2.486 3.665 6.045 5.768 9.766 5.768s7.28-2.103 9.767-5.768c2.283-3.368 3.541-7.79 3.541-12.453 0-4.662-1.258-9.085-3.541-12.452ZM140.405 41.452c-1.003-3.41-3.151-5.887-6.049-6.976-2.332-.876-4.964-.727-7.412.419-3.374 1.579-6.132 4.839-7.566 8.945-1.171 3.355-1.318 6.901-.411 9.986 1.002 3.41 3.15 5.887 6.049 6.975a8.896 8.896 0 0 0 3.136.564c1.425 0 2.881-.329 4.277-.982 3.373-1.579 6.131-4.84 7.565-8.945 1.171-3.355 1.317-6.901.411-9.986ZM61.622 43.84c-1.434-4.106-4.192-7.367-7.565-8.946-2.448-1.145-5.081-1.294-7.413-.418-2.898 1.089-5.046 3.566-6.048 6.976-.907 3.084-.761 6.63.41 9.986 1.435 4.106 4.192 7.366 7.566 8.945 1.396.653 2.851.982 4.276.982a8.9 8.9 0 0 0 3.137-.564c2.898-1.089 5.046-3.566 6.048-6.976.907-3.084.76-6.63-.41-9.986Z"/></g><path d="M11.102 121.52 7.84 126H5.656l4.312-5.74-3.836-4.228h2.156l3.892 4.48v-4.48h1.75v4.48l3.892-4.48h2.156l-3.836 4.228 4.312 5.74H18.27l-3.262-4.48-1.078 1.204V126h-1.75v-3.276l-1.078-1.204Zm20.663-5.488V126H30.1v-7.686L27.328 126H25.9l-2.842-7.686V126h-1.652v-9.968h2.45l2.785 7.798 2.689-7.798h2.436ZM33.82 126v-9.968h1.75v7.644l4.284-7.644h2.03V126h-1.75v-7.644L35.849 126h-2.03Zm22.064-9.968V126h-1.75v-4.48h-4.564V126h-1.75v-9.968h1.75v3.962h4.564v-3.962h1.75Zm6.617-.014L66.35 126h-1.876l-.952-2.646h-3.948l-.98 2.646h-1.806l3.85-9.982H62.5Zm.56 6.02-1.484-4.2-1.554 4.2h3.038ZM78.983 126h-1.75v-8.456h-3.08l-.182 4.746c-.056 1.325-.327 2.305-.812 2.94-.476.635-1.097.952-1.862.952-.336 0-.686-.061-1.05-.182v-1.344c.186.075.415.112.686.112.27 0 .49-.065.658-.196.168-.131.317-.42.448-.868.13-.457.21-1.087.238-1.89l.196-5.782h6.51V126Zm6.61-9.982 3.85 9.982h-1.877l-.952-2.646h-3.948l-.98 2.646H79.88l3.85-9.982h1.862Zm.56 6.02-1.485-4.2-1.554 4.2h3.038Zm12.263-6.006V126h-1.75v-8.456h-4.564V126h-1.75v-9.968h8.064Zm10.412 0-3.99 3.976L109.08 126h-2.17l-3.276-4.774-1.428 1.428V126h-1.736v-9.968h1.736v4.522l4.41-4.522h2.212Zm3.564 7.168-3.444-7.168h1.932l2.408 5.348 2.464-5.348h1.89l-3.878 7.938c-.402.821-.831 1.405-1.288 1.75a2.517 2.517 0 0 1-1.554.518c-.411 0-.803-.084-1.176-.252v-1.47c.27.168.644.252 1.12.252.298 0 .55-.117.756-.35.205-.233.457-.63.756-1.19l.014-.028Zm6.277.91v1.428c0 .728-.14 1.311-.42 1.75-.28.448-.774.751-1.484.91v-.84c.579-.177.882-.63.91-1.358h-.91v-1.89h1.904Zm11.713-2.478c-1.073.187-1.946.28-2.618.28-.578 0-1.092-.07-1.54-.21-.438-.149-.779-.327-1.022-.532a2.73 2.73 0 0 1-.574-.756 3.076 3.076 0 0 1-.294-.784 4.056 4.056 0 0 1-.07-.756v-2.842h1.75v2.31c0 .224.005.401.014.532.01.131.052.303.126.518.075.215.178.383.308.504.131.121.332.229.602.322.271.093.598.14.98.14.766 0 1.545-.079 2.338-.238v-4.088h1.75V126h-1.75v-4.368Zm10.97-5.6v1.512h-3.178V126h-1.75v-8.456h-3.178v-1.512h8.106Zm5.197-.238c1.41 0 2.553.485 3.43 1.456.887.961 1.33 2.217 1.33 3.766s-.443 2.809-1.33 3.78c-.886.961-2.039 1.442-3.458 1.442-1.428 0-2.585-.481-3.472-1.442-.877-.961-1.316-2.221-1.316-3.78 0-1.512.43-2.758 1.288-3.738.868-.989 2.044-1.484 3.528-1.484Zm-.028 1.47c-.914 0-1.647.341-2.198 1.022-.55.672-.826 1.573-.826 2.702 0 1.157.271 2.077.812 2.758.551.681 1.298 1.022 2.24 1.022.906 0 1.629-.341 2.17-1.022.551-.691.826-1.605.826-2.744 0-1.139-.275-2.044-.826-2.716-.541-.681-1.274-1.022-2.198-1.022Zm14.515 5.642c0 .989-.299 1.755-.896 2.296-.588.532-1.423.798-2.506.798h-4.732v-9.968h7.336v1.512h-5.586v2.296h2.982c1.092 0 1.932.266 2.52.798.588.532.882 1.288.882 2.268Zm-1.75.042c0-.523-.154-.933-.462-1.232-.308-.299-.737-.448-1.288-.448h-2.884v3.304h2.912c1.148 0 1.722-.541 1.722-1.624Zm11.005-.042c0 .989-.298 1.755-.896 2.296-.588.532-1.423.798-2.506.798h-4.13v-9.968h1.75v3.808h2.38c1.092 0 1.932.266 2.52.798.588.532.882 1.288.882 2.268Zm-1.75.042c0-.523-.154-.933-.462-1.232-.308-.299-.737-.448-1.288-.448h-2.282v3.304h2.31c1.148 0 1.722-.541 1.722-1.624Zm2.926-6.916h1.75V126h-1.75v-9.968Zm-105.7 22V148h-1.75v-8.456h-4.563V148h-1.75v-9.968h8.064Zm6.366-.238c1.41 0 2.553.485 3.43 1.456.887.961 1.33 2.217 1.33 3.766s-.443 2.809-1.33 3.78c-.886.961-2.04 1.442-3.458 1.442-1.428 0-2.585-.481-3.472-1.442-.877-.961-1.316-2.221-1.316-3.78 0-1.512.43-2.758 1.288-3.738.868-.989 2.044-1.484 3.528-1.484Zm-.028 1.47c-.915 0-1.647.341-2.198 1.022-.55.672-.826 1.573-.826 2.702 0 1.157.27 2.077.812 2.758.55.681 1.297 1.022 2.24 1.022.906 0 1.629-.341 2.17-1.022.55-.691.826-1.605.826-2.744 0-1.139-.275-2.044-.826-2.716-.541-.681-1.274-1.022-2.198-1.022Zm16.727-1.232V148h-1.666v-7.686L84.394 148h-1.428l-2.842-7.686V148h-1.652v-9.968h2.45l2.786 7.798 2.688-7.798h2.436Zm6.38-.238c1.409 0 2.552.485 3.43 1.456.886.961 1.33 2.217 1.33 3.766s-.444 2.809-1.33 3.78c-.887.961-2.04 1.442-3.459 1.442-1.428 0-2.585-.481-3.472-1.442-.877-.961-1.316-2.221-1.316-3.78 0-1.512.43-2.758 1.288-3.738.868-.989 2.044-1.484 3.528-1.484Zm-.029 1.47c-.914 0-1.647.341-2.198 1.022-.55.672-.826 1.573-.826 2.702 0 1.157.27 2.077.812 2.758.55.681 1.298 1.022 2.24 1.022.906 0 1.629-.341 2.17-1.022.55-.691.826-1.605.826-2.744 0-1.139-.275-2.044-.826-2.716-.541-.681-1.274-1.022-2.198-1.022Zm12.135 4.368c-1.073.187-1.946.28-2.618.28-.579 0-1.092-.07-1.54-.21-.439-.149-.779-.327-1.022-.532a2.71 2.71 0 0 1-.574-.756 3.076 3.076 0 0 1-.294-.784 3.973 3.973 0 0 1-.07-.756v-2.842h1.75v2.31c0 .224.005.401.014.532.009.131.051.303.126.518.075.215.177.383.308.504s.331.229.602.322c.271.093.597.14.98.14.765 0 1.545-.079 2.338-.238v-4.088h1.75V148h-1.75v-4.368Zm11.642 1.274c0 .989-.299 1.755-.896 2.296-.588.532-1.423.798-2.506.798h-4.41v-9.968h1.75v3.808h2.66c1.092 0 1.932.266 2.52.798.588.532.882 1.288.882 2.268Zm-1.75.042c0-.523-.154-.933-.462-1.232-.308-.299-.737-.448-1.288-.448h-2.562v3.304h2.59c1.148 0 1.722-.541 1.722-1.624Zm5.012-6.916v2.856l-.448 4.354h-.826l-.434-4.34v-2.87h1.708Zm.056 8.19V148h-1.82v-1.778h1.82Z" fill="#FF8A00"/><defs><clipPath id="a"><path fill="#fff" transform="translate(35)" d="M0 0h111v101H0z"/></clipPath><filter id="b" x="34.008" y="5.083" width="112.985" height="98.834" filterUnits="userSpaceOnUse" color-interpolation-filters="sRGB"><feFlood flood-opacity="0" result="BackgroundImageFix"/><feColorMatrix in="SourceAlpha" values="0 0 0 0 0 0 0 0 0 0 0 0 0 0 0 0 0 0 127 0" result="hardAlpha"/><feOffset dy="4"/><feGaussianBlur stdDeviation="3"/><feComposite in2="hardAlpha" operator="out"/><feColorMatrix values="0 0 0 0 0 0 0 0 0 0 0 0 0 0 0 0 0 0 0.25 0"/><feBlend in2="BackgroundImageFix" result="effect1_dropShadow_44_270"/><feBlend in="SourceGraphic" in2="effect1_dropShadow_44_270" result="shape"/></filter></defs></svg>
